src/images_karasa_jaga_svg/cmd/32/imagebutton.svg

<svg height="32" viewBox="0 0 32 32" width="32" xmlns="http://www.w3.org/2000/svg" xmlns:xlink="http://www.w3.org/1999/xlink"><linearGradient id="a" gradientTransform="matrix(0 1 -1 0 130.5777 .237576)" gradientUnits="userSpaceOnUse" x1="26.221916" x2="96.5784" y1="59.536545" y2="57.715343"><stop offset="0" stop-color="#fff"/><stop offset="1" stop-color="#bbb"/></linearGradient><filter id="b" color-interpolation-filters="sRGB" height="1.011497" width="1.00824" x="-.00412" y="-.005748"><feGaussianBlur stdDeviation=".13885547"/></filter><linearGradient id="c" gradientTransform="matrix(.9368095 0 0 .95151147 3.793032 -2.620516)" gradientUnits="userSpaceOnUse" x1="72.618614" x2="73.819366" y1="101.35709" y2="47.875233"><stop offset="0" stop-color="#b3b3b7"/><stop offset="1" stop-color="#e5e5e5" stop-opacity=".996078"/></linearGradient><linearGradient id="d" gradientUnits="userSpaceOnUse" x1="85.717094" x2="-13.947494" xlink:href="#e" y1="92.189766" y2="1.963599"/><linearGradient id="e"><stop offset="0" stop-color="#fff"/><stop offset=".42597079" stop-color="#fff"/><stop offset=".5892781" stop-color="#f1f1f1"/><stop offset=".80219781" stop-color="#eaeaea"/><stop offset="1" stop-color="#dfdfdf"/></linearGradient><linearGradient id="f" gradientUnits="userSpaceOnUse" x1="-5.896006" x2="55.588886" xlink:href="#g" y1="-44.78648" y2="116.05923"/><linearGradient id="g"><stop offset="0" stop-color="#b4b4b6"/><stop offset=".5" stop-color="#9c9ca1"/><stop offset="1" stop-color="#cdcdd1"/></linearGradient><linearGradient id="h" gradientTransform="matrix(-.96618587 0 1.0040524 2.5140531 123.62358 -18.976126)" gradientUnits="userSpaceOnUse" x1="110.45749" x2="63.741646" xlink:href="#i" y1="-4.576576" y2="41.850632"/><linearGradient id="i"><stop offset="0" stop-color="#fff"/><stop offset="1" stop-color="#fff" stop-opacity="0"/></linearGradient><linearGradient id="j" gradientTransform="matrix(.14485292 0 0 .23368504 -336.9588 -136.00247)" gradientUnits="userSpaceOnUse" x1="399.77466" x2="399.77466" xlink:href="#g" y1="1164.6696" y2="549.06134"/><linearGradient id="k" gradientTransform="matrix(1.2618232 0 0 1.682431 -336.75669 -43.675568)" gradientUnits="userSpaceOnUse" x1="15.999998" x2="98.714287" xlink:href="#e" y1="106.75" y2="36.035713"/><linearGradient id="l" gradientTransform="matrix(1.6076398 .65106311 -.79293547 1.9579586 -355.70533 -76.172966)" gradientUnits="userSpaceOnUse" x1="144.78481" x2="63.089115" xlink:href="#i" y1="-56.087624" y2="62.056267"/><linearGradient id="m" gradientTransform="matrix(.1300602 0 0 .2090041 -152.94107 -186.85256)" gradientUnits="userSpaceOnUse" x1="399.77466" x2="399.77466" xlink:href="#g" y1="1164.6696" y2="549.06134"/><linearGradient id="n" gradientTransform="matrix(1.1666667 0 0 1.5555557 -154.66666 -107.55555)" gradientUnits="userSpaceOnUse" x1="9.571428" x2="112" xlink:href="#e" y1="142.42857" y2="27.999998"/><linearGradient id="o" gradientTransform="matrix(1 0 -1.0391918 2.6020388 -111.87759 -105.63262)" gradientUnits="userSpaceOnUse" x1="101.47155" x2="79.994766" xlink:href="#i" y1="-3.371918" y2="39.929062"/><g transform="scale(.25)"><path d="m20.389029 12a5.7180728 5.7536851 0 0 0 -.633592.03773h-1.934518c-3.281568 0-6.136104 1.089532-8.6903266 2.933051-2.5542227 1.843514-5.1305924 4.878212-5.1305924 9.170727v79.379092c0 4.29252 2.5763687 7.32721 5.1305924 9.17074 2.5542236 1.84351 5.4087586 2.93305 8.6903266 2.93305h1.975756a5.7180728 5.7536851 0 0 0 .592354.0378h41.63709.316795 45.268056a5.7180728 5.7536851 0 0 0 .63359-.0378h1.93452c3.28157 0 6.1361-1.08954 8.69033-2.93305 2.55422-1.84353 5.13059-4.87822 5.13059-9.17074v-79.379092c0-4.292513-2.57637-7.327214-5.13059-9.170733-2.55423-1.843519-5.40876-2.93305-8.69033-2.93305h-1.97575a5.7180728 5.7536851 0 0 0 -.59236-.037725h-45.268056-.316795z" fill="#8b8b91"/><path d="m18.964953 15.999994v.0388h-2.649414c-3.595774 0-8.3635855 2.950817-8.3635855 6.616478v82.689378c0 3.66567 4.7678115 6.61647 8.3635855 6.61647h2.649414v.03888h42.968818.327516 46.716073v-.0389h2.6494c3.59577 0 8.36359-2.95081 8.36359-6.61648v-82.689351c0-3.66566-4.76782-6.616477-8.36359-6.616477h-2.6494v-.038792h-46.716073-.327516z" fill="url(#c)"/><path d="m16.195312 2.5530752c-.105581.0000116-.21046.017161-.310546.05078h-2.517578c-2.246364 0-4.6422827 1.070615-6.5527349 2.777344-1.9104522 1.706728-3.3496093 4.11354-3.3496093 6.8574208v101.46567c0 2.74388 1.4391572 5.15069 3.3496093 6.85742s4.3063709 2.77735 6.5527349 2.77735h2.517578c.100085.0336.204964.0508.310546.0508h49.867188.580078 45.636722c.10558-.00002.21046-.0172.31054-.0508h2.51758c2.24637 0 4.64228-1.07062 6.55274-2.77735 1.91045-1.70673 3.34961-4.11354 3.34961-6.85742v-101.465669c0-2.7438818-1.43916-5.1506928-3.34961-6.8574208-1.91046-1.706729-4.30638-2.777344-6.55274-2.777344h-2.51758c-.10008-.033618-.20496-.050768-.31054-.05078h-45.636722-.580078zm1.982422 5.171875h47.884766.580078 43.656252c.0966.031064.19739.046877.29883.04687h2.73046c1.53667 0 3.55112.802137 5.09961 2.123046 1.54849 1.3209098 2.61133 3.0939338 2.61133 4.9648438v97.08872c0 1.87091-1.06284 3.64393-2.61133 4.96484-1.54849 1.3209-3.56294 2.12305-5.09961 2.12305h-2.73046c-.10351 0-.20636.0165-.30469.0488h-43.650392-.580078-47.880859c-.09833-.0323-.20118-.0488-.304688-.0488h-2.730469c-1.536659 0-3.551118-.80214-5.099609-2.12305-1.5484906-1.3209-2.6113281-3.09393-2.6113281-4.96484v-97.088715c0-1.870909 1.0628374-3.643934 2.6113281-4.9648438 1.548491-1.320909 3.56295-2.123046 5.099609-2.123046h2.730469c.102095.0002107.203591-.015605.300781-.04687z" fill="url(#a)" filter="url(#b)" transform="matrix(.91846237 0 0 .79446008 4.894108 13.971682)"/><g transform="matrix(.39526143 0 0 .39526143 180.902947 30.643269)"><rect fill="url(#j)" height="143.67435" rx="71.837173" width="143.1153" x="-327.55765" y="-7.587171"/><g fill-rule="evenodd"><rect fill="url(#k)" height="121.13502" rx="60.567509" width="121.13502" x="-316.5675" y="3.432491"/><path d="m-221.2886 14.721301c-27.35509 2.851615-62.35649 26.03651-82.19876 66.752696l58.37058 30.689343c-.3492-28.559651 17.81741-68.538525 38.12509-83.821109-3.63121-4.99301-7.98237-9.410116-12.94495-13.080149z" fill="url(#l)"/></g></g><g transform="matrix(.39526143 0 0 .39526143 81.115276 68.458823)"><rect fill="url(#m)" height="121.43861" rx="2.857143" ry="2.769231" width="121.43861" x="-144.5" y="-72"/><g fill-rule="evenodd"><rect fill="url(#n)" height="101.19884" rx="1.750001" width="101.19884" x="-134.38011" y="-61.880116"/><path d="m-59.306272-61.880115c-20.481151 24.532235-45.911478 48.946729-65.009908 81.145355h44.218748c13.835755-30.826301 30.534611-56.553887 46.916161-81.145355z" fill="url(#o)"/></g></g><g transform="matrix(0 .39526143 -.39526143 0 102.692051 52.217296)"><path d="m69.651329 78.391236-116.121893-18.739458 74.289793-91.19478z" style="opacity:.891386;stroke-width:11.287565;stroke-linecap:round;stroke-linejoin:round;stroke-dashoffset:1.0878;fill:url(#d);stroke:url(#f)" transform="matrix(.92177293 .35196336 -.35235698 .92060315 77.614605 25.355074)"/><path d="m73.860519 34.20818c19.788601 23.702699 18.178815 9.394122 36.631451 40.503977l-31.109187 22.887089c-13.367907-29.783936-3.073859-32.266966-18.901475-56.026896z" fill="url(#h)" fill-rule="evenodd"/></g></g></svg>

<?xml version="1.0" encoding="UTF-8" standalone="no"?>
<!-- Created with Inkscape (http://www.inkscape.org/) -->

<svg
   xmlns:dc="http://purl.org/dc/elements/1.1/"
   xmlns:cc="http://creativecommons.org/ns#"
   xmlns:rdf="http://www.w3.org/1999/02/22-rdf-syntax-ns#"
   xmlns:svg="http://www.w3.org/2000/svg"
   xmlns="http://www.w3.org/2000/svg"
   xmlns:xlink="http://www.w3.org/1999/xlink"
   xmlns:sodipodi="http://sodipodi.sourceforge.net/DTD/sodipodi-0.dtd"
   xmlns:inkscape="http://www.inkscape.org/namespaces/inkscape"
   version="1.1"
   id="svg2"
   width="128"
   height="128"
   viewBox="0 0 128 128"
   sodipodi:docname="imagebutton.svg"
   inkscape:version="0.92.3 (unknown)"
   inkscape:export-filename="/home/rizmut/Dokumen/Rizmut/Github/libreoffice-style-karasa-jaga/build/images_karasa_jaga/cmd/32/imagebutton.png"
   inkscape:export-xdpi="24"
   inkscape:export-ydpi="24">
  <metadata
     id="metadata8">
    <rdf:RDF>
      <cc:Work
         rdf:about="">
        <dc:format>image/svg+xml</dc:format>
        <dc:type
           rdf:resource="http://purl.org/dc/dcmitype/StillImage" />
        <dc:title></dc:title>
      </cc:Work>
    </rdf:RDF>
  </metadata>
  <defs
     id="defs6">
    <linearGradient
       inkscape:collect="always"
       id="linearGradient1084">
      <stop
         style="stop-color:#b3b3b7;stop-opacity:1;"
         offset="0"
         id="stop1080" />
      <stop
         style="stop-color:#e5e5e5;stop-opacity:0.99607843"
         offset="1"
         id="stop1082" />
    </linearGradient>
    <linearGradient
       inkscape:collect="always"
       id="linearGradient838">
      <stop
         style="stop-color:#ffffff;stop-opacity:1;"
         offset="0"
         id="stop834" />
      <stop
         style="stop-color:#bbbbbb;stop-opacity:1"
         offset="1"
         id="stop836" />
    </linearGradient>
    <linearGradient
       inkscape:collect="always"
       xlink:href="#linearGradient838"
       id="linearGradient840"
       x1="26.221916"
       y1="59.536545"
       x2="96.5784"
       y2="57.715343"
       gradientUnits="userSpaceOnUse"
       gradientTransform="rotate(90,65.170062,65.407638)" />
    <filter
       inkscape:collect="always"
       style="color-interpolation-filters:sRGB"
       id="filter894"
       x="-0.004120197"
       width="1.0082404"
       y="-0.0057484538"
       height="1.0114969">
      <feGaussianBlur
         inkscape:collect="always"
         stdDeviation="0.13885547"
         id="feGaussianBlur896" />
    </filter>
    <linearGradient
       inkscape:collect="always"
       xlink:href="#linearGradient1084"
       id="linearGradient1086"
       x1="72.618614"
       y1="101.35709"
       x2="73.819366"
       y2="47.875233"
       gradientUnits="userSpaceOnUse"
       gradientTransform="matrix(0.9368095,0,0,0.95151147,3.7930316,-2.6205163)" />
    <linearGradient
       inkscape:collect="always"
       xlink:href="#linearGradient3369"
       id="linearGradient2336"
       gradientUnits="userSpaceOnUse"
       x1="85.717094"
       y1="92.189766"
       x2="-13.947494"
       y2="1.9635986" />
    <linearGradient
       id="linearGradient3369">
      <stop
         style="stop-color:#ffffff;stop-opacity:1;"
         offset="0"
         id="stop3372" />
      <stop
         id="stop3374"
         offset="0.42597079"
         style="stop-color:#ffffff;stop-opacity:1;" />
      <stop
         id="stop3376"
         offset="0.5892781"
         style="stop-color:#f1f1f1;stop-opacity:1;" />
      <stop
         style="stop-color:#eaeaea;stop-opacity:1;"
         offset="0.80219781"
         id="stop3378" />
      <stop
         style="stop-color:#dfdfdf;stop-opacity:1;"
         offset="1"
         id="stop3384" />
    </linearGradient>
    <linearGradient
       inkscape:collect="always"
       xlink:href="#linearGradient2443"
       id="linearGradient2338"
       gradientUnits="userSpaceOnUse"
       x1="-5.8960056"
       y1="-44.78648"
       x2="55.588886"
       y2="116.05923" />
    <linearGradient
       id="linearGradient2443">
      <stop
         style="stop-color:#b4b4b6;stop-opacity:1;"
         offset="0"
         id="stop2445" />
      <stop
         id="stop2447"
         offset="0.5"
         style="stop-color:#9c9ca1;stop-opacity:1;" />
      <stop
         id="stop2449"
         offset="1"
         style="stop-color:#cdcdd1;stop-opacity:1;" />
    </linearGradient>
    <linearGradient
       inkscape:collect="always"
       xlink:href="#linearGradient3310"
       id="linearGradient2340"
       gradientUnits="userSpaceOnUse"
       gradientTransform="matrix(-0.96618587,0,1.0040524,2.5140531,123.62358,-18.976126)"
       x1="110.45749"
       y1="-4.5765758"
       x2="63.741646"
       y2="41.850632" />
    <linearGradient
       inkscape:collect="always"
       id="linearGradient3310">
      <stop
         style="stop-color:#ffffff;stop-opacity:1;"
         offset="0"
         id="stop3312" />
      <stop
         style="stop-color:#ffffff;stop-opacity:0;"
         offset="1"
         id="stop3314" />
    </linearGradient>
    <linearGradient
       inkscape:collect="always"
       xlink:href="#linearGradient2443"
       id="linearGradient2457-9"
       gradientUnits="userSpaceOnUse"
       gradientTransform="matrix(0.14485292,0,0,0.23368504,-336.9588,-136.00247)"
       x1="399.77466"
       y1="1164.6696"
       x2="399.77466"
       y2="549.06134" />
    <linearGradient
       inkscape:collect="always"
       xlink:href="#linearGradient3369"
       id="linearGradient2459"
       gradientUnits="userSpaceOnUse"
       gradientTransform="matrix(1.2618232,0,0,1.682431,-336.75669,-43.675568)"
       x1="15.999998"
       y1="106.75"
       x2="98.714287"
       y2="36.035713" />
    <linearGradient
       inkscape:collect="always"
       xlink:href="#linearGradient3310"
       id="linearGradient2461"
       gradientUnits="userSpaceOnUse"
       gradientTransform="matrix(1.6076398,0.65106311,-0.79293547,1.9579586,-355.70533,-76.172966)"
       x1="144.78481"
       y1="-56.087624"
       x2="63.089115"
       y2="62.056267" />
    <linearGradient
       inkscape:collect="always"
       xlink:href="#linearGradient2443"
       id="linearGradient2457"
       gradientUnits="userSpaceOnUse"
       gradientTransform="matrix(0.1300602,0,0,0.2090041,-152.94107,-186.85256)"
       x1="399.77466"
       y1="1164.6696"
       x2="399.77466"
       y2="549.06134" />
    <linearGradient
       inkscape:collect="always"
       xlink:href="#linearGradient3369"
       id="linearGradient2519"
       gradientUnits="userSpaceOnUse"
       gradientTransform="matrix(1.1666667,0,0,1.5555557,-154.66666,-107.55555)"
       x1="9.5714283"
       y1="142.42857"
       x2="112"
       y2="27.999998" />
    <linearGradient
       inkscape:collect="always"
       xlink:href="#linearGradient3310"
       id="linearGradient2515"
       gradientUnits="userSpaceOnUse"
       gradientTransform="matrix(1,0,-1.0391918,2.6020388,-111.87759,-105.63262)"
       x1="101.47155"
       y1="-3.3719175"
       x2="79.994766"
       y2="39.929062" />
  </defs>
  <sodipodi:namedview
     pagecolor="#ffffff"
     bordercolor="#666666"
     borderopacity="1"
     objecttolerance="10"
     gridtolerance="10"
     guidetolerance="10"
     inkscape:pageopacity="0"
     inkscape:pageshadow="2"
     inkscape:window-width="1366"
     inkscape:window-height="706"
     id="namedview4"
     showgrid="true"
     inkscape:snap-page="true"
     inkscape:snap-global="true"
     inkscape:zoom="5.6568543"
     inkscape:cx="88.042825"
     inkscape:cy="65.374395"
     inkscape:window-x="0"
     inkscape:window-y="0"
     inkscape:window-maximized="1"
     inkscape:current-layer="svg2"
     inkscape:snap-smooth-nodes="true">
    <inkscape:grid
       type="xygrid"
       id="grid862"
       spacingx="4"
       spacingy="4"
       empspacing="2" />
  </sodipodi:namedview>
  <path
     style="opacity:1;fill:#8b8b91;fill-opacity:1;stroke:none;stroke-width:0.85871226;stroke-linecap:round;stroke-linejoin:bevel;stroke-miterlimit:4;stroke-dasharray:none;stroke-dashoffset:0;stroke-opacity:1"
     d="m 20.389029,12 a 5.7180728,5.7536851 0 0 0 -0.633592,0.03773 h -1.934518 c -3.281568,0 -6.136104,1.089532 -8.6903266,2.933051 C 6.5763697,16.814295 4,19.848993 4,24.141508 V 103.5206 c 0,4.29252 2.5763687,7.32721 5.1305924,9.17074 2.5542236,1.84351 5.4087586,2.93305 8.6903266,2.93305 h 1.975756 a 5.7180728,5.7536851 0 0 0 0.592354,0.0378 h 41.63709 0.316795 45.268056 a 5.7180728,5.7536851 0 0 0 0.63359,-0.0378 h 1.93452 c 3.28157,0 6.1361,-1.08954 8.69033,-2.93305 C 121.42363,110.84781 124,107.81312 124,103.5206 V 24.141508 c 0,-4.292513 -2.57637,-7.327214 -5.13059,-9.170733 -2.55423,-1.843519 -5.40876,-2.93305 -8.69033,-2.93305 h -1.97575 A 5.7180728,5.7536851 0 0 0 107.61097,12 H 62.342914 62.026119 Z"
     id="path8398"
     inkscape:connector-curvature="0" />
  <path
     style="opacity:1;fill:url(#linearGradient1086);fill-opacity:1;stroke:none;stroke-width:0.89034379;stroke-linecap:round;stroke-linejoin:bevel;stroke-miterlimit:4;stroke-dasharray:none;stroke-dashoffset:0;stroke-opacity:1"
     d="m 18.964953,15.999994 v 0.0388 h -2.649414 c -3.595774,0 -8.3635855,2.950817 -8.3635855,6.616478 v 82.689378 c 0,3.66567 4.7678115,6.61647 8.3635855,6.61647 h 2.649414 V 112 h 42.968818 0.327516 46.716073 v -0.0389 h 2.6494 c 3.59577,0 8.36359,-2.95081 8.36359,-6.61648 V 22.655269 c 0,-3.66566 -4.76782,-6.616477 -8.36359,-6.616477 h -2.6494 V 16 H 62.261287 61.933771 Z"
     id="path904"
     inkscape:connector-curvature="0"
     sodipodi:nodetypes="ccssssccccccssssccccc" />
  <path
     transform="matrix(0.91846237,0,0,0.79446008,4.8941078,13.971682)"
     style="opacity:1;fill:url(#linearGradient840);fill-opacity:1;stroke:none;stroke-width:1.05240166;stroke-linecap:round;stroke-linejoin:bevel;stroke-miterlimit:4;stroke-dasharray:none;stroke-dashoffset:0;stroke-opacity:1;filter:url(#filter894)"
     d="m 16.195312,2.5530752 c -0.105581,1.16e-5 -0.21046,0.017161 -0.310546,0.05078 h -2.517578 c -2.246364,0 -4.6422827,1.070615 -6.5527349,2.777344 -1.9104522,1.706728 -3.3496093,4.11354 -3.3496093,6.8574208 v 101.46567 c 0,2.74388 1.4391572,5.15069 3.3496093,6.85742 1.9104521,1.70673 4.3063709,2.77735 6.5527349,2.77735 h 2.517578 c 0.100085,0.0336 0.204964,0.0508 0.310546,0.0508 H 66.0625 66.642578 112.2793 c 0.10558,-2e-5 0.21046,-0.0172 0.31054,-0.0508 h 2.51758 c 2.24637,0 4.64228,-1.07062 6.55274,-2.77735 1.91045,-1.70673 3.34961,-4.11354 3.34961,-6.85742 V 12.238621 c 0,-2.7438818 -1.43916,-5.1506928 -3.34961,-6.8574208 -1.91046,-1.706729 -4.30638,-2.777344 -6.55274,-2.777344 h -2.51758 c -0.10008,-0.033618 -0.20496,-0.050768 -0.31054,-0.05078 H 66.642578 66.0625 Z m 1.982422,5.171875 H 66.0625 66.642578 110.29883 c 0.0966,0.031064 0.19739,0.046877 0.29883,0.04687 h 2.73046 c 1.53667,0 3.55112,0.802137 5.09961,2.123046 1.54849,1.3209098 2.61133,3.0939338 2.61133,4.9648438 v 97.08872 c 0,1.87091 -1.06284,3.64393 -2.61133,4.96484 -1.54849,1.3209 -3.56294,2.12305 -5.09961,2.12305 h -2.73046 c -0.10351,0 -0.20636,0.0165 -0.30469,0.0488 H 66.642578 66.0625 18.181641 c -0.09833,-0.0323 -0.20118,-0.0488 -0.304688,-0.0488 h -2.730469 c -1.536659,0 -3.551118,-0.80214 -5.099609,-2.12305 -1.5484906,-1.3209 -2.6113281,-3.09393 -2.6113281,-4.96484 V 14.859715 c 0,-1.870909 1.0628374,-3.643934 2.6113281,-4.9648438 1.548491,-1.320909 3.56295,-2.123046 5.099609,-2.123046 h 2.730469 c 0.102095,2.107e-4 0.203591,-0.015605 0.300781,-0.04687 z"
     id="path829"
     inkscape:connector-curvature="0"
     sodipodi:nodetypes="ccssssssccccccscsscsccccccccccsssscsccccccscssssccc" />
  <g
     id="g8371"
     transform="matrix(1.0763579,0,0,1.0763579,-4.3805268,-3.7142411)">
    <g
       transform="matrix(0.36722119,0,0,0.36722119,172.13928,31.920154)"
       id="g4196">
      <rect
         inkscape:export-ydpi="90"
         inkscape:export-xdpi="90"
         inkscape:export-filename="/home/pinheiro/Desktop/mock2.png"
         style="fill:url(#linearGradient2457-9);fill-opacity:1;fill-rule:nonzero;stroke:none;stroke-width:2.23617649;stroke-linecap:round;stroke-linejoin:round;stroke-miterlimit:4;stroke-dasharray:none;stroke-dashoffset:4;stroke-opacity:1"
         id="rect2324-0"
         width="143.1153"
         height="143.67435"
         x="-327.55765"
         y="-7.5871711"
         inkscape:r_cx="true"
         inkscape:r_cy="true"
         ry="71.837173"
         rx="71.837173" />
      <rect
         ry="60.567509"
         rx="60.567509"
         y="3.4324906"
         x="-316.5675"
         height="121.13502"
         width="121.13502"
         id="rect2326-6"
         style="fill:url(#linearGradient2459);fill-opacity:1;fill-rule:evenodd;stroke:none;stroke-width:8.65250111;stroke-linecap:round;stroke-linejoin:round;stroke-miterlimit:4;stroke-dasharray:none;stroke-opacity:1" />
      <path
         inkscape:connector-curvature="0"
         style="fill:url(#linearGradient2461);fill-opacity:1;fill-rule:evenodd;stroke:none;stroke-width:1.08156264px;stroke-linecap:butt;stroke-linejoin:miter;stroke-opacity:1"
         d="m -221.2886,14.721301 c -27.35509,2.851615 -62.35649,26.03651 -82.19876,66.752696 l 58.37058,30.689343 c -0.3492,-28.559651 17.81741,-68.538525 38.12509,-83.821109 -3.63121,-4.99301 -7.98237,-9.410116 -12.94495,-13.080149 z"
         id="path3318-26"
         sodipodi:nodetypes="cccccc" />
    </g>
    <g
       transform="matrix(0.36722119,0,0,0.36722119,79.430646,67.053035)"
       id="g4135">
      <rect
         inkscape:export-ydpi="90"
         inkscape:export-xdpi="90"
         inkscape:export-filename="/home/pinheiro/Desktop/mock2.png"
         style="fill:url(#linearGradient2457);fill-opacity:1;fill-rule:nonzero;stroke:none;stroke-width:2;stroke-linecap:round;stroke-linejoin:round;stroke-miterlimit:4;stroke-dasharray:none;stroke-dashoffset:4;stroke-opacity:1"
         id="rect2324"
         width="121.43861"
         height="121.43861"
         x="-144.5"
         y="-72"
         inkscape:r_cx="true"
         inkscape:r_cy="true"
         ry="2.7692308"
         rx="2.8571429" />
      <rect
         ry="1.7500014"
         rx="1.7500014"
         y="-61.880116"
         x="-134.38011"
         height="101.19884"
         width="101.19884"
         id="rect2326"
         style="fill:url(#linearGradient2519);fill-opacity:1;fill-rule:evenodd;stroke:none;stroke-width:8;stroke-linecap:round;stroke-linejoin:round;stroke-miterlimit:4;stroke-dasharray:none;stroke-opacity:1" />
      <path
         inkscape:connector-curvature="0"
         id="path3318-2"
         d="m -59.306272,-61.880115 c -20.481151,24.532235 -45.911478,48.946729 -65.009908,81.145355 h 44.218748 c 13.835755,-30.826301 30.534611,-56.553887 46.916161,-81.145355 z"
         style="fill:url(#linearGradient2515);fill-opacity:1;fill-rule:evenodd;stroke:none;stroke-width:1px;stroke-linecap:butt;stroke-linejoin:miter;stroke-opacity:1"
         sodipodi:nodetypes="ccccc" />
    </g>
    <g
       transform="matrix(0,0.36722119,-0.36722119,0,99.476743,51.963698)"
       id="g2332">
      <path
         sodipodi:type="star"
         style="opacity:0.89138579;fill:url(#linearGradient2336);fill-opacity:1;stroke:url(#linearGradient2338);stroke-width:11.28756481;stroke-linecap:round;stroke-linejoin:round;stroke-miterlimit:4;stroke-dasharray:none;stroke-dashoffset:1.08780003;stroke-opacity:1"
         id="path2315"
         sodipodi:sides="3"
         sodipodi:cx="16.999998"
         sodipodi:cy="35.500004"
         sodipodi:r1="67.910385"
         sodipodi:r2="30.493454"
         sodipodi:arg1="0.68359684"
         sodipodi:arg2="1.7307944"
         inkscape:flatsided="true"
         inkscape:rounded="0"
         inkscape:randomized="0"
         d="M 69.651329,78.391236 -46.470564,59.651778 27.819229,-31.543002 Z"
         transform="matrix(0.92177293,0.35196336,-0.35235698,0.92060315,77.614605,25.355074)" />
      <path
         id="path3318"
         d="M 73.860519,34.20818 C 93.64912,57.910879 92.039334,43.602302 110.49197,74.712157 L 79.382783,97.599246 C 66.014876,67.81531 76.308924,65.33228 60.481308,41.57235 Z"
         style="fill:url(#linearGradient2340);fill-opacity:1;fill-rule:evenodd;stroke:none;stroke-width:0.96618587px;stroke-linecap:butt;stroke-linejoin:miter;stroke-opacity:1"
         sodipodi:nodetypes="ccccc"
         inkscape:connector-curvature="0" />
    </g>
  </g>
</svg>
